X:749
T:Murphy's delight
T:Darby Gallagher's
T:Hiudaí Gallagher's march
R:Jig
O:Ireland
S:tonyji~1.abc
D:Paddy Glackin: In Full Spate.
D:Altan: Red Crow
Z:Transcription:Henrik Norbeck?, modified, chords:Mike Long
M:6/8
L:1/8
K:D
ed|\
"A"cBA ecA|"D"fed "A"cBA|"G"def gfg|BcB Bed|\
"A"cBA ecA|"D"fed "A"cBA|"A"~c2e "G"dBe|"A"ABA A:|
|:fg|\
"A"agf "G"gfe|"D"fed "A"cBA|"G"def gfg|~B3 Bfg|\
"A"agf "G"gfe|"D"fed "A"cBA|"A"c2e "G"dBe|"A"ABA A:|
